images/Icon_blue.svg

<svg fill="none" height="39" viewBox="0 0 42 39" width="42" xmlns="http://www.w3.org/2000/svg"><path d="m32.3379 4.0988.0008.00046c2.3207 1.47806 4.2921 3.42655 5.7814 5.71459 1.4892 2.28795 2.4618 4.86225 2.8522 7.54985m-8.6344-13.2649 8.486 13.287m-8.486-13.287c-4.6037-2.89465-10.1786-3.908508-15.5339-2.82545v.00001c-5.2155 1.05725-9.79208 4.09881-12.72698 8.45963l-.0002.0003c-2.85499 4.26421-3.871099 9.46481-2.82527 14.46281l.00015.0006c1.04821 4.8983 4.33233 9.1109 8.49524 11.5223 4.11576 2.4051 8.95096 3.3444 13.69026 2.6599 4.8932-.6741 9.409-2.9565 12.8089-6.4749m-3.9082-27.8052 3.8007 27.7006m4.8337-14.4357c0 .0002 0 .0003.0001.0005l-.1485.0216m.1484-.0221v-.0001l-.1484.0222m.1484-.0221c.8028 5.3686-1.1738 10.8956-4.7262 14.5403m4.5778-14.5182c.7956 5.3199-1.1639 10.8007-4.6853 14.4136m.1075.1046c.0001-.0001.0002-.0002.0004-.0004l-.1079-.1042m.1075.1046c0 .0001-.0001.0001-.0001.0001l-.1074-.1047m-31.42741-8.1971-.00018-.0013c-.55863-4.025.53165-8.1035 3.03278-11.3422 2.43241-3.13153 6.03201-5.19017 10.01021-5.72379 1.9029-.24705 3.837-.11635 5.6874.3843 1.8504.50067 3.5792 1.36108 5.0836 2.52994l.0005.00036c2.9497 2.27349 5.0113 5.47309 5.8388 9.06079.8149 3.5646.6224 7.545-1.1714 11.2893-.9381 1.9407-2.3214 3.6424-4.0418 4.9721-1.7204 1.3296-3.7314 2.2511-5.8756 2.692-2.1986.4377-4.4691.3888-6.6459-.1432-2.1771-.5319-4.2055-1.5336-5.9375-2.9318-3.41937-2.7668-5.45695-6.7521-5.98091-10.7865z" fill="#010118" stroke="#010118" stroke-width=".3"/></svg>

<svg width="42" height="39" viewBox="0 0 42 39" fill="none" xmlns="http://www.w3.org/2000/svg">
<path d="M32.3379 4.0988L32.3387 4.09926C34.6594 5.57732 36.6308 7.52581 38.1201 9.81385C39.6093 12.1018 40.5819 14.6761 40.9723 17.3637M32.3379 4.0988L40.8239 17.3858M32.3379 4.0988C27.7342 1.20415 22.1593 0.190292 16.804 1.27335L16.804 1.27336C11.5885 2.33061 7.01192 5.37217 4.07702 9.73299L4.07682 9.73329C1.22183 13.9975 0.205721 19.1981 1.25155 24.1961L1.2517 24.1967C2.29991 29.095 5.58403 33.3076 9.74694 35.719C13.8627 38.1241 18.6979 39.0634 23.4372 38.3789C28.3304 37.7048 32.8462 35.4224 36.2461 31.904M32.3379 4.0988L36.1386 31.7994M40.9723 17.3637C40.9723 17.3639 40.9723 17.364 40.9724 17.3642L40.8239 17.3858M40.9723 17.3637C40.9723 17.3637 40.9723 17.3636 40.9723 17.3636L40.8239 17.3858M40.9723 17.3637C41.7751 22.7323 39.7985 28.2593 36.2461 31.904M40.8239 17.3858C41.6195 22.7057 39.66 28.1865 36.1386 31.7994M36.2461 31.904C36.2462 31.9039 36.2463 31.9038 36.2465 31.9036L36.1386 31.7994M36.2461 31.904C36.2461 31.9041 36.246 31.9041 36.246 31.9041L36.1386 31.7994M4.71119 23.6023L4.71101 23.601C4.15238 19.576 5.24266 15.4975 7.74379 12.2588C10.1762 9.12727 13.7758 7.06863 17.754 6.53501C19.6569 6.28796 21.591 6.41866 23.4414 6.91931C25.2918 7.41998 27.0206 8.28039 28.525 9.44925L28.5255 9.44961C31.4752 11.7231 33.5368 14.9227 34.3643 18.5104C35.1792 22.075 34.9867 26.0554 33.1929 29.7997C32.2548 31.7404 30.8715 33.4421 29.1511 34.7718C27.4307 36.1014 25.4197 37.0229 23.2755 37.4638C21.0769 37.9015 18.8064 37.8526 16.6296 37.3206C14.4525 36.7887 12.4241 35.787 10.6921 34.3888C7.27273 31.622 5.23515 27.6367 4.71119 23.6023Z" fill="#010118" stroke="#010118" stroke-width="0.3"/>
</svg>
